!!!!SEGMENT: Wil3011-Mon_cueur_mon_corps.krn
!!!id: Wil3011
!!!AGN: Chanson
!!!SCT: Ory (Attaingnant ([c. 1528]|9))
!!!voices: 4
!!!COM: Adrian Willaert
!!!OTL: Mon cueur mon corps
**kern	**kern	**kern	**kern
*part4	*part3	*part2	*part1
*staff4	*staff3	*staff2	*staff1
*I"Bassus	*I"Tenor	*I"Altus	*I"Superius
*I'B	*I'T	*I'A	*I'S
*clefF4	*clefGv2	*clefGv2	*clefG2
*k[]	*k[]	*k[]	*k[]
*C:	*C:	*C:	*C:
*M2/1	*M2/1	*M2/1	*M2/1
*met(C|)	*met(C|)	*met(C|)	*met(C|)
=1	=1	=1	=1
0r	0r	1r	1d
.	.	1d	1f
=2	=2	=2	=2
0r	0r	2B	2g
.	.	2c	2.a
.	.	1d	.
.	.	.	4g
.	.	.	4f
.	.	.	4e
=3	=3	=3	=3
0r	0r	2r	2d
.	.	2c	2a
.	.	2d	2a
.	.	2A	2a
=4	=4	=4	=4
1r	0r	2B	2g
.	.	2c	2g
1D	.	2.d	2.f
.	.	8cL	4g
.	.	8BJ	.
=5	=5	=5	=5
2.F	1D	2A	4a
.	.	.	4d
.	.	2.f	1a
4G	.	.	.
1A	1F	.	.
.	.	4e	.
.	.	[2d	4g
.	.	.	4f
=6	=6	=6	=6
1r	2G	2d]	1e
.	2.A	2c#i	.
1D	.	[1d	1d
.	4G	.	.
.	4F	.	.
.	4E	.	.
=7	=7	=7	=7
2BB	2D	2d]	1r
2C	2A	2e	.
1D	2A	4f	2r
.	.	4e	.
.	2A	4d	2f
.	.	4c	.
=8	=8	=8	=8
2r	2G	2B	2d
2C	2G	2c	2e
2D	2F	2A	2.f
2AA	[2A	[2c	.
.	.	.	4e
=9	=9	=9	=9
2C	4A]	4c]	2e
.	4G	4B	.
2D	2F	4A	1d
.	.	4G	.
1AA	1E	[1A	.
.	.	.	2c#i
=10	=10	=10	=10
1r	1D	1A]	1d
1G	1r	1B-X	2r
.	.	.	2d
=11	=11	=11	=11
2G	1d	2B-i	2g
2G	.	2B-i	2g
4D	2d	2A	1f
4E	.	.	.
4F	2d	2D	.
4G	.	.	.
=12	=12	=12	=12
2A	2.c	2F	0r
2AA	.	2E	.
.	4B	.	.
2D	4A	2F	.
.	4G	.	.
2D	[2A	2F	.
=13	=13	=13	=13
2.C	2A]	1E	0r
.	2G	.	.
4BB	.	.	.
2AA	2c	1r	.
2GG	[2B	.	.
=14	=14	=14	=14
2C	4B]	2r	0r
.	4A	.	.
2D	1A	2d	.
2BB	.	2d	.
2BB	2G#i	2d	.
=15	=15	=15	=15
2AA	1A	2.c	2r
2F	.	.	2a
.	.	4B	.
2F	1c	4A	2a
.	.	4B	.
2F	.	4c	2a
.	.	4d	.
=16	=16	=16	=16
0C	2c	1e	2.g
.	2c	.	.
.	.	.	4f
.	1G	2r	4e
.	.	.	4d
.	.	2E	[2e
=17	=17	=17	=17
2r	0r	2.G	2e]
2BB	.	.	2d
.	.	4F	.
2C	.	2E	2g
2D	.	2D	[2f
=18	=18	=18	=18
2E	2r	2G	4f]
.	.	.	4e
2C	2A	2A	1e
1D	2A	1F	.
.	2A	.	2d
=19	=19	=19	=19
2r	1c	1E	4e
.	.	.	4f
2C	.	.	4g
.	.	.	4e
2D	2r	1r	2.f
2D	2A	.	.
.	.	.	8eL
.	.	.	8dJ
=20	=20	=20	=20
1.F	2A	0r	1c
.	2A	.	.
.	[1c	.	1r
2F	.	.	.
=21	=21	=21	=21
2E	2c]	0r	0r
2D	2B	.	.
2C	2A	.	.
2E	2G	.	.
=22	=22	=22	=22
2D	2F	1r	0r
2.F	2A	.	.
.	1G	2r	.
4E	.	.	.
4E	.	2c	.
8DL	.	.	.
8EJ	.	.	.
=23	=23	=23	=23
1F	0F	2c	2r
.	.	2c	2a
1r	.	[1f	2a
.	.	.	2a
=24	=24	=24	=24
0r	0r	2f]	1.cc
.	.	2f	.
.	.	2e	.
.	.	2d	2b
=25	=25	=25	=25
0r	0r	2c	2a
.	.	2e	2g
.	.	4d	2f
.	.	4c	.
.	.	[2f	2a
=26	=26	=26	=26
2r	1r	2f]	1g
2C	.	2e	.
2D	2r	2.f	1f
2D	2A	.	.
.	.	8eL	.
.	.	8dJ	.
=27	=27	=27	=27
1.F	2A	1c	2r
.	2A	.	2a
.	1c	2r	2a
2F	.	2A	2a
=28	=28	=28	=28
2E	2r	2B	2g
2D	2F	2B	2f
2C	2G	2c	2e
2E	2C	2G	[2g
=29	=29	=29	=29
1D	2F	2.A	4g]
.	.	.	4f
.	2F	.	1f
.	.	4B	.
1C	1G	1c	.
.	.	.	2e
=30	=30	=30	=30
0r	1F	1c	[0f
.	2r	1d	.
.	2B-X	.	.
=31	=31	=31	=31
2r	2B-i	1d	1f]
2D	2B-i	.	.
1D	1A	1d	2r
.	.	.	2f
=32	=32	=32	=32
1D	2r	2.A	2f
.	2A	.	2f
.	.	4B	.
1C	2A	1c	1e
.	2G	.	.
=33	=33	=33	=33
2r	2F	0r	0r
2C	2G	.	.
2.C	2E	.	.
.	[2G	.	.
4BB	.	.	.
=34	=34	=34	=34
2AA	4G]	2r	0r
.	4F	.	.
2BB-X	1F	2F	.
1GG	.	2B-i	.
.	2E	2B-i	.
=35	=35	=35	=35
1FF	1F	2.A	2r
.	.	.	2c
.	.	4B	.
1FF	2r	1c	2f
.	2A	.	2f
=36	=36	=36	=36
2AA	2A	2r	1e
2AA	2A	2c	.
2C	1G	1c	2r
2C	.	.	2e
=37	=37	=37	=37
2.E	2r	2B	2.g
.	2G	1c	.
4F	.	.	4f
2G	2.G	.	2e
2GG	.	2B	[2d
.	4F	.	.
=38	=38	=38	=38
2AA	2E	1A	4d]
.	.	.	4c
2FF	2F	.	1c
1GG	1D	1G	.
.	.	.	2B
=39	=39	=39	=39
2r	1C	2r	1c
2G	.	2E	.
2.G	2r	4E	1r
.	.	4D	.
.	[2C	4E	.
4F	.	4F	.
=40	=40	=40	=40
2E	2C]	2G	1c
2F	2.c	2.A	.
1D	.	.	1f
.	4B	4F	.
.	4B	[2f	.
.	4A	.	.
=41	=41	=41	=41
2C	0c	2f]	1g
2C	.	2e	.
2.F	.	2f	1a
.	.	2A	.
4G	.	.	.
=42	=42	=42	=42
1A	1F	1c	2r
.	.	.	2a
1r	1r	1d	2a
.	.	.	2a
=43	=43	=43	=43
2r	0r	1e	2.g
2C	.	.	.
.	.	.	8fL
.	.	.	8eJ
2D	.	2r	2f
2E	.	2e	2g
=44	=44	=44	=44
1AA	2r	2e	2c
.	2E	2e	2cc
1r	2F	2d	2a
.	2G	2d	2b
=45	=45	=45	=45
2r	1A	2c	2e
2AA	.	1e	2.cc
2C	1r	.	.
.	.	.	4a
2D	.	4d	[2a
.	.	4c	.
=46	=46	=46	=46
1E	0r	1B	2a]
.	.	.	2g#i
2r	.	1A	2a
2A	.	.	[2cc
=47	=47	=47	=47
2A	0r	2r	2cc]
2A	.	2c	4b
.	.	.	4a
2G	.	2d	1b
2G	.	2e	.
=48	=48	=48	=48
2F	0r	4A	2r
.	.	4B	.
1A	.	4c	2e
.	.	4d	.
.	.	4e	2a
.	.	4c	.
4G	.	[2d	2a
4F	.	.	.
=49	=49	=49	=49
1E	1r	2d]	2g
.	.	2c	2g
1D	2r	2d	2f
.	2D	[2f	[2a
=50	=50	=50	=50
1r	2F	4f]	2a]
.	.	4e	.
.	2G	1d	4g
.	.	.	4f
1AA	1A	.	2e
.	.	2c#i	2e
=51	=51	=51	=51
1D	2r	2d	2f
.	2A	1f	2d
1F	2A	.	2c
.	2A	[2c	[2f
=52	=52	=52	=52
2C	2G	2c]	4f]
.	.	.	8eL
.	.	.	8dJ
2C	2G	2c	2e
2D	2F	2A	2f
2AA	[2A	[2c	[2e
=53	=53	=53	=53
2C	4A]	4c]	2e]
.	4G	4B	.
2D	2F	4A	1d
.	.	4G	.
1AA	1E	1A	.
.	.	.	2c#i
=54	=54	=54	=54
1D	2D	2r	2d
.	2F	2A	2a
1r	2F	2c	2a
.	2F	2d	2a
=55	=55	=55	=55
2r	1C	1e	2.g
2C	.	.	.
.	.	.	8fL
.	.	.	8eJ
2D	1r	2r	2f
2E	.	2e	2g
=56	=56	=56	=56
1AA	2r	2e	2c
.	2E	2e	2cc
1r	2F	2d	2a
.	2G	2d	2b
=57	=57	=57	=57
2r	1A	2c	2e
2AA	.	1e	2.cc
2C	1r	.	.
.	.	.	4a
2D	.	4d	[2a
.	.	4c	.
=58	=58	=58	=58
1E	0r	1B	2a]
.	.	.	2g#i
2r	.	1A	2a
2A	.	.	[2cc
=59	=59	=59	=59
2A	0r	2r	2cc]
2A	.	2c	4b
.	.	.	4a
2G	.	2d	1b
2G	.	2e	.
=60	=60	=60	=60
2F	0r	4A	2r
.	.	4B	.
1A	.	4c	2e
.	.	4d	.
.	.	4e	2a
.	.	4c	.
4G	.	[2d	2a
4F	.	.	.
=61	=61	=61	=61
1E	1r	2d]	2g
.	.	2c	2g
1D	2r	2d	2f
.	2D	[2f	[2a
=62	=62	=62	=62
1r	2F	4f]	2a]
.	.	4e	.
.	2G	1d	4g
.	.	.	4f
1AA	1A	.	2e
.	.	2c#i	2e
=63	=63	=63	=63
1D	2r	2d	2f
.	2A	1f	2d
1F	2A	.	2c
.	2A	[2c	[2f
=64	=64	=64	=64
2C	2G	2c]	4f]
.	.	.	8eL
.	.	.	8dJ
2C	2G	2c	2e
2D	2F	2A	2f
2AA	[2A	[2c	[2e
=65	=65	=65	=65
2C	4A]	4c]	2e]
.	4G	4B	.
2D	2F	4A	1d
.	.	4G	.
1AA	1E	1A	.
.	.	.	2c#i
=66	=66	=66	=66
00Dl	00Dl	00Al	00dl
==	==	==	==
*-	*-	*-	*-
!!!system-decoration: [*]
!!!RDF**kern: i = editorial accidental
!!!RDF**kern: l = terminal long
!!!ENC: Benjamin Ory
!!!END: 2020/12/18
!!!EED: Benjamin Ory
!!!EEV: 2021/04/30
!!!YEC: Copyright 2021 Benjamin Ory, All Rights Reserved
!!!ONB: Translated from MusicXML on 2021/04/30
